apps/22/steam.svg

<?xml version="1.0" encoding="UTF-8" standalone="no"?>
<!-- Created with Inkscape (http://www.inkscape.org/) -->

<svg
   xmlns:dc="http://purl.org/dc/elements/1.1/"
   xmlns:cc="http://creativecommons.org/ns#"
   xmlns:rdf="http://www.w3.org/1999/02/22-rdf-syntax-ns#"
   xmlns:svg="http://www.w3.org/2000/svg"
   xmlns="http://www.w3.org/2000/svg"
   xmlns:sodipodi="http://sodipodi.sourceforge.net/DTD/sodipodi-0.dtd"
   xmlns:inkscape="http://www.inkscape.org/namespaces/inkscape"
   width="22"
   height="22"
   id="svg27665"
   version="1.1"
   inkscape:version="0.48.3.1 r9886"
   sodipodi:docname="steam.svg">
  <defs
     id="defs27667" />
  <sodipodi:namedview
     id="base"
     pagecolor="#ffffff"
     bordercolor="#666666"
     borderopacity="1.0"
     inkscape:pageopacity="0.0"
     inkscape:pageshadow="2"
     inkscape:zoom="31.999999"
     inkscape:cx="12.040403"
     inkscape:cy="12.224012"
     inkscape:document-units="px"
     inkscape:current-layer="layer1"
     showgrid="true"
     inkscape:window-width="1920"
     inkscape:window-height="949"
     inkscape:window-x="-10"
     inkscape:window-y="31"
     inkscape:window-maximized="1"
     inkscape:snap-bbox="true"
     inkscape:bbox-paths="true"
     inkscape:bbox-nodes="true"
     inkscape:snap-bbox-edge-midpoints="true"
     inkscape:snap-bbox-midpoints="true"
     inkscape:object-paths="true"
     inkscape:snap-intersection-paths="true"
     inkscape:object-nodes="true"
     inkscape:snap-smooth-nodes="true"
     inkscape:snap-midpoints="true"
     inkscape:snap-object-midpoints="true"
     inkscape:snap-center="true"
     inkscape:snap-global="false"
     showguides="false"
     inkscape:guide-bbox="true"
     fit-margin-top="0"
     fit-margin-left="0"
     fit-margin-right="0"
     fit-margin-bottom="0"
     inkscape:showpageshadow="false">
    <sodipodi:guide
       orientation="1,0"
       position="-3201.6232,-603.37577"
       id="guide4181" />
    <inkscape:grid
       type="xygrid"
       id="grid3296"
       empspacing="5"
       visible="true"
       enabled="true"
       snapvisiblegridlinesonly="true"
       originx="-1855px"
       originy="-1853px" />
    <sodipodi:guide
       orientation="1,0"
       position="-1343,-1343"
       id="guide3432" />
    <sodipodi:guide
       orientation="1,0"
       position="-1855,-1343"
       id="guide4416" />
    <sodipodi:guide
       orientation="0,1"
       position="-1855,-1343"
       id="guide3391" />
    <sodipodi:guide
       orientation="0,1"
       position="-1565,-1358"
       id="guide3393" />
    <sodipodi:guide
       orientation="0,1"
       position="-1530,-1840"
       id="guide3395" />
    <sodipodi:guide
       orientation="1,0"
       position="-1358,-1600"
       id="guide3397" />
    <sodipodi:guide
       orientation="1,0"
       position="-1840,-1600"
       id="guide3399" />
    <sodipodi:guide
       orientation="1,0"
       position="-1830,-1600"
       id="guide3401" />
    <sodipodi:guide
       orientation="1,0"
       position="-1368,-1584"
       id="guide3403" />
    <sodipodi:guide
       orientation="0,1"
       position="-1570,-1368"
       id="guide3405" />
    <sodipodi:guide
       orientation="0,1"
       position="-1600,-1830"
       id="guide3407" />
    <sodipodi:guide
       orientation="1,0"
       position="-395,-385.99995"
       id="guide3628" />
    <sodipodi:guide
       orientation="1,0"
       position="-347,-382.99995"
       id="guide3630" />
    <sodipodi:guide
       orientation="0,1"
       position="-379,-346.99995"
       id="guide3632" />
    <sodipodi:guide
       orientation="0,1"
       position="-377,-394.99997"
       id="guide3634" />
    <sodipodi:guide
       orientation="0,1"
       position="-396,-349.99995"
       id="guide3636" />
    <sodipodi:guide
       orientation="1,0"
       position="-350,-344.99995"
       id="guide3638" />
    <sodipodi:guide
       orientation="0,1"
       position="-400,-391.99997"
       id="guide3640" />
    <sodipodi:guide
       orientation="1,0"
       position="-392,-344.99995"
       id="guide3642" />
  </sodipodi:namedview>
  <metadata
     id="metadata27670">
    <rdf:RDF>
      <cc:Work
         rdf:about="">
        <dc:format>image/svg+xml</dc:format>
        <dc:type
           rdf:resource="http://purl.org/dc/dcmitype/StillImage" />
        <dc:title />
      </cc:Work>
    </rdf:RDF>
  </metadata>
  <g
     inkscape:label="Camada 1"
     inkscape:groupmode="layer"
     id="layer1"
     transform="translate(1683.7081,-520.68635)">
    <path
       sodipodi:nodetypes="cccscccccsssccsccssssssssss"
       id="path3020"
       d="m -1667.7081,523.68635 c -2.2091,0 -4,1.79086 -4,4 l -4.8438,6.03125 c -0.054,-0.003 -0.1012,-0.0312 -0.1562,-0.0312 -0.7407,0 -1.4142,0.27384 -1.9375,0.71875 l -9.5625,-5.5 c -0.1921,-0.12528 -0.4283,-0.1815 -0.6563,-0.15625 -0.8354,0.10619 -1.0871,1.4794 -0.3437,1.875 l 9.5625,5.53125 c -0.032,0.17623 -0.062,0.3457 -0.062,0.53125 0,1.65685 1.3431,3 3,3 1.6569,0 3,-1.34315 3,-3 0,-0.055 -0.028,-0.10194 -0.031,-0.15625 l 6.0313,-4.84375 c 2.2091,0 4,-1.79086 4,-4 0,-2.20914 -1.7909,-4 -4,-4 z m 0,1.25 c 1.5188,0 2.75,1.23122 2.75,2.75 0,1.51878 -1.2312,2.75 -2.75,2.75 -1.5188,0 -2.75,-1.23122 -2.75,-2.75 0,-1.51878 1.2312,-2.75 2.75,-2.75 z m 0,1.19792 c -0.8572,0 -1.5521,0.69489 -1.5521,1.55208 0,0.85719 0.6949,1.55208 1.5521,1.55208 0.8572,0 1.5521,-0.69489 1.5521,-1.55208 0,-0.85719 -0.6949,-1.55208 -1.5521,-1.55208 z"
       style="color:#000000;fill:#27303a;fill-opacity:0.753280819999999968;fill-rule:nonzero;stroke:none;stroke-width:1.3333329;marker:none;visibility:visible;display:inline;overflow:visible;enable-background:accumulate"
       inkscape:connector-curvature="0" />
    <path
       style="font-size:medium;font-style:normal;font-variant:normal;font-weight:normal;font-stretch:normal;text-indent:0;text-align:start;text-decoration:none;line-height:normal;letter-spacing:normal;word-spacing:normal;text-transform:none;direction:ltr;block-progression:tb;writing-mode:lr-tb;text-anchor:start;baseline-shift:baseline;color:#000000;fill:#f1f3f5;fill-opacity:0.90288714000000003;fill-rule:nonzero;stroke:none;stroke-width:2;marker:none;visibility:visible;display:inline;overflow:visible;enable-background:accumulate;font-family:Sans;-inkscape-font-specification:Sans"
       d="M 16 1.8125 C 13.3517 1.8125 11.2463 3.83685 10.9375 6.40625 L 6.53125 11.90625 C 6.00095 11.96965 5.5124 12.10226 5.0625 12.34375 L -3.84375 7.21875 C -3.86375 7.20575 -3.88625 7.1997 -3.90625 7.1875 C -4.32385 6.93334 -4.79305 6.82093 -5.28125 6.875 L -5.3125 6.875 C -6.3572 7.00779 -6.94925 7.899 -7.09375 8.6875 C -7.23605 9.46356 -6.98775 10.46517 -6.09375 10.96875 L -6.0625 11 L 2.84375 16.125 C 2.91575 18.36952 4.7393 20.1875 7 20.1875 C 9.1396 20.1875 10.8792 18.54627 11.125 16.46875 L 16.59375 12.0625 C 19.16315 11.75367 21.21875 9.64843 21.21875 7 C 21.21875 4.17614 18.90525 1.89828 16.09375 1.84375 C 16.08075 1.84351 16.0745 1.8126 16.0625 1.8125 L 16 1.8125 z M 16 3 C 18.2091 3 20 4.79086 20 7 C 20 9.20914 18.2091 11 16 11 L 9.96875 15.84375 C 9.97175 15.89806 10 15.945 10 16 C 10 17.65685 8.6569 19 7 19 C 5.3431 19 4 17.65685 4 16 C 4 15.81445 4.0305 15.64498 4.0625 15.46875 L -5.5 9.9375 C -6.2434 9.5419 -5.99165 8.16869 -5.15625 8.0625 C -4.92825 8.03725 -4.6921 8.09347 -4.5 8.21875 L 5.0625 13.71875 C 5.5858 13.27384 6.2593 13 7 13 C 7.055 13 7.10225 13.02825 7.15625 13.03125 L 12 7 C 12 4.79086 13.7909 3 16 3 z M 16 4.25 C 14.4812 4.25 13.25 5.48122 13.25 7 C 13.25 8.51878 14.4812 9.75 16 9.75 C 17.5188 9.75 18.75 8.51878 18.75 7 C 18.75 5.48122 17.5188 4.25 16 4.25 z M 16 5.4375 C 16.8572 5.4375 17.5625 6.14281 17.5625 7 C 17.5625 7.85719 16.8572 8.5625 16 8.5625 C 15.1428 8.5625 14.4375 7.85719 14.4375 7 C 14.4375 6.14281 15.1428 5.4375 16 5.4375 z "
       transform="translate(-1683.7081,520.68635)"
       id="path3005" />
    <path
       id="path3004"
       d="m -1638.3331,523.68635 c -2.2091,0 -4,1.79086 -4,4 l -4.8438,6.03125 c -0.054,-0.003 -0.1012,-0.0312 -0.1562,-0.0312 -0.7407,0 -1.4142,0.27384 -1.9375,0.71875 l -9.5625,-5.5 a 1.0001,1.0001 0 0 0 -0.6563,-0.15625 1.0001,1.0001 0 0 0 -0.3437,1.875 l 9.5625,5.53125 c -0.032,0.17623 -0.062,0.3457 -0.062,0.53125 0,1.65685 1.3431,3 3,3 1.6569,0 3,-1.34315 3,-3 0,-0.055 -0.028,-0.10194 -0.031,-0.15625 l 6.0313,-4.84375 c 2.2091,0 4,-1.79086 4,-4 0,-2.20914 -1.7909,-4 -4,-4 z m 0,1 c 1.6569,0 3,1.34315 3,3 0,1.65685 -1.3431,3 -3,3 -1.6569,0 -3,-1.34315 -3,-3 0,-1.65685 1.3431,-3 3,-3 z m 0,1 c -1.1046,0 -2,0.89543 -2,2 0,1.10457 0.8954,2 2,2 1.1046,0 2,-0.89543 2,-2 0,-1.10457 -0.8954,-2 -2,-2 z m -9,9 c 1.1046,0 2,0.89543 2,2 0,1.10457 -0.8954,2 -2,2 -1.1046,0 -2,-0.89543 -2,-2 l 1.5,0.875 a 1.0077822,1.0077822 0 1 0 1,-1.75 l -1.5,-0.84375 c 0.2945,-0.17076 0.635,-0.28125 1,-0.28125 z"
       style="color:#000000;fill:#27303a;fill-opacity:0.753280819999999968;fill-rule:nonzero;stroke:none;stroke-width:1.3333329;marker:none;visibility:visible;display:inline;overflow:visible;enable-background:accumulate"
       inkscape:connector-curvature="0" />
    <path
       style="font-size:medium;font-style:normal;font-variant:normal;font-weight:normal;font-stretch:normal;text-indent:0;text-align:start;text-decoration:none;line-height:normal;letter-spacing:normal;word-spacing:normal;text-transform:none;direction:ltr;block-progression:tb;writing-mode:lr-tb;text-anchor:start;baseline-shift:baseline;color:#000000;fill:#f1f3f5;fill-opacity:0.90288714000000003;fill-rule:nonzero;stroke:none;stroke-width:2;marker:none;visibility:visible;display:inline;overflow:visible;enable-background:accumulate;font-family:Sans;-inkscape-font-specification:Sans"
       d="m -1638.2393,522.0301 c -2.9325,0.13545 -5.106,2.51924 -5.1563,5.0625 l -4.4062,5.5 c -0.5303,0.0634 -1.0189,0.19601 -1.4688,0.4375 l -8.9062,-5.125 c -0.02,-0.0129 -0.043,-0.019 -0.062,-0.0312 -0.4174,-0.25401 -0.8867,-0.36655 -1.375,-0.3125 l -0.031,0 c -1.0447,0.13274 -1.6366,1.02399 -1.7812,1.8125 -0.1423,0.77624 0.1056,1.77778 1,2.28125 l 0.031,0.0312 8.9063,5.125 c -0.2405,2.24434 1.3019,4.46875 4.1562,4.46875 2.6702,0 4.0938,-1.94327 4.0938,-4.125 l 5.5,-4.40625 c 3.4375,-0.34375 4.8367,-2.47709 5.0312,-5.15625 0.2428,-3.34386 -2.1697,-5.71777 -5.5312,-5.5625 z m -0.094,1.22251 c 2.5735,-0.0624 4.6381,1.88289 4.4337,4.43374 -0.1955,2.44087 -2.2246,4 -4.4337,4 l -6.0312,4.84375 c 0,0.0543 0.031,0.10125 0.031,0.15625 0,1.65685 -1.3431,3.15625 -3,3.15625 -1.6569,0 -3,-1.4994 -3,-3.15625 0,-0.18555 0.031,-0.35502 0.062,-0.53125 l -9.5625,-5.53125 c -0.7434,-0.39561 -0.4917,-1.76884 0.3438,-1.875 0.2279,-0.0252 0.4641,0.031 0.6562,0.15625 l 9.5625,5.5 c 0.5233,-0.44491 1.1968,-0.71875 1.9375,-0.71875 0.055,0 0.1023,0.0283 0.1563,0.0312 l 4.8437,-6.03125 c 0,-2.20914 1.5521,-4.37437 4,-4.43374 z m 0,1.43374 c -1.6569,0 -3,1.34315 -3,3 0,1.65685 1.3431,3 3,3 1.6569,0 3,-1.34315 3,-3 0,-1.65685 -1.3431,-3 -3,-3 z m 0,1 c 1.1046,0 2,0.89543 2,2 0,1.10457 -0.8954,2 -2,2 -1.1046,0 -2,-0.89543 -2,-2 0,-1.10457 0.8954,-2 2,-2 z m -9,9 c -0.365,0 -0.7055,0.11049 -1,0.28125 l 1.5,0.84375 c 0.4581,0.2618 0.6368,0.91685 0.375,1.375 -0.2618,0.45815 -0.9169,0.6368 -1.375,0.375 l -1.5,-0.875 c 0,1.10457 0.8954,2 2,2 1.1046,0 2,-0.89543 2,-2 0,-1.10457 -0.8954,-2 -2,-2 z"
       id="path3141"
       inkscape:connector-curvature="0"
       sodipodi:nodetypes="scccccccccccsccssssccssscccccsccssssssssssssccsccsss" />
  </g>
</svg>

<?xml version="1.0" encoding="UTF-8"?>
<svg id="d" width="22" height="22" version="1.1" xmlns="http://www.w3.org/2000/svg" xmlns:cc="http://creativecommons.org/ns#" xmlns:dc="http://purl.org/dc/elements/1.1/" xmlns:rdf="http://www.w3.org/1999/02/22-rdf-syntax-ns#">
	<metadata id="a">
		<rdf:RDF>
			<cc:Work rdf:about="">
				<dc:format>image/svg+xml</dc:format>
				<dc:type rdf:resource="http://purl.org/dc/dcmitype/StillImage"/>
				<dc:title/>
			</cc:Work>
		</rdf:RDF>
	</metadata>
	<defs id="e">
		<style id="current-color-scheme" type="text/css">.ColorScheme-Text {color:#090d11;}.ColorScheme-Background{color:#ffffff;}</style>
	</defs>
	<path id="c" class="ColorScheme-Text" d="m16 3c-2.2091 0-4 1.7909-4 4l-4.8438 6.0312c-0.054-3e-3 -0.1012-0.0312-0.1562-0.0312-0.7407 0-1.4142 0.27384-1.9375 0.71875l-9.5625-5.5c-0.1921-0.12528-0.4283-0.1815-0.6563-0.15625-0.8354 0.10619-1.0871 1.4794-0.3437 1.875l9.5625 5.5312c-0.032 0.17623-0.062 0.3457-0.062 0.53125 0 1.6568 1.3431 3 3 3s3-1.3432 3-3c0-0.055-0.028-0.10194-0.031-0.15625l6.0313-4.8438c2.2091 0 4-1.7909 4-4s-1.7909-4-4-4zm0 1.25c1.5188 0 2.75 1.2312 2.75 2.75s-1.2312 2.75-2.75 2.75-2.75-1.2312-2.75-2.75 1.2312-2.75 2.75-2.75zm0 1.1979c-0.8572 0-1.5521 0.69489-1.5521 1.5521s0.6949 1.5521 1.5521 1.5521 1.5521-0.69489 1.5521-1.5521-0.6949-1.5521-1.5521-1.5521z" style="fill-opacity:.75;fill:currentColor"/>
	<path id="b" class="ColorScheme-Background" d="m16 1.8125c-2.6483 0-4.7537 2.0244-5.0625 4.5938l-4.4063 5.5c-0.5303 0.0634-1.0188 0.19601-1.4687 0.4375l-8.9063-5.125c-0.02-0.013-0.043-0.019-0.062-0.0312-0.4176-0.25416-0.8868-0.36657-1.375-0.3125h-0.031c-1.0447 0.13279-1.6368 1.024-1.7813 1.8125-0.1423 0.77606 0.106 1.7777 1 2.2812l0.031 0.0312 8.9062 5.125c0.071999 2.2445 1.8956 4.0625 4.1563 4.0625 2.1396 0 3.8792-1.6412 4.125-3.7188l5.4687-4.4062c2.5694-0.30883 4.625-2.4141 4.625-5.0625 0-2.8239-2.3135-5.1017-5.125-5.1562-0.013-2.4e-4 -0.019-0.0311-0.031-0.0312h-0.062zm0 1.1875c2.2091 0 4 1.7909 4 4s-1.7909 4-4 4l-6.0313 4.8438c0 0.0543 0.031 0.10125 0.031 0.15625 0 1.6568-1.3431 3-3 3s-3-1.3432-3-3c0-0.18555 0.031-0.35502 0.062-0.53125l-9.5625-5.5312c-0.7434-0.3956-0.4917-1.7688 0.3437-1.875 0.228-0.0252 0.4642 0.031 0.6563 0.15625l9.5625 5.5c0.5233-0.44491 1.1968-0.71875 1.9375-0.71875 0.055 0 0.1022 0.0283 0.1562 0.0312l4.8438-6.0312c0-2.2091 1.7909-4 4-4zm0 1.25c-1.5188 0-2.75 1.2312-2.75 2.75s1.2312 2.75 2.75 2.75 2.75-1.2312 2.75-2.75-1.2312-2.75-2.75-2.75zm0 1.1875c0.8572 0 1.5625 0.70531 1.5625 1.5625s-0.7053 1.5625-1.5625 1.5625-1.5625-0.70531-1.5625-1.5625 0.7053-1.5625 1.5625-1.5625z" style="fill-opacity:.5;fill:currentColor"/>
</svg>
